dist/images/IG.svg

<svg width="29" height="28" viewBox="0 0 29 28" fill="none" xmlns="http://www.w3.org/2000/svg">
<rect x="1.00171" y="0.355224" width="26.9271" height="26.9271" rx="13.4636" stroke="#FAF8EF" stroke-width="0.716308"/>
<path fill-rule="evenodd" clip-rule="evenodd" d="M12.25 5.5C10.3257 5.5 8.84859 5.8818 7.8652 6.8652C6.8818 7.84859 6.5 9.32568 6.5 11.25V15.75C6.5 17.6743 6.8818 19.1514 7.8652 20.1348C8.84859 21.1182 10.3257 21.5 12.25 21.5H16.75C18.6743 21.5 20.1514 21.1182 21.1348 20.1348C22.1182 19.1514 22.5 17.6743 22.5 15.75V11.25C22.5 9.32568 22.1182 7.84859 21.1348 6.8652C20.1514 5.8818 18.6743 5.5 16.75 5.5H12.25ZM7.5 11.25C7.5 9.42431 7.8682 8.27641 8.5723 7.5723C9.27641 6.8682 10.4243 6.5 12.25 6.5H16.75C18.5757 6.5 19.7236 6.8682 20.4277 7.5723C21.1318 8.27641 21.5 9.42431 21.5 11.25V15.75C21.5 17.5757 21.1318 18.7236 20.4277 19.4277C19.7236 20.1318 18.5757 20.5 16.75 20.5H12.25C10.4243 20.5 9.27641 20.1318 8.5723 19.4277C7.8682 18.7236 7.5 17.5757 7.5 15.75V11.25ZM17.125 13.5C17.125 14.9497 15.9497 16.125 14.5 16.125C13.0503 16.125 11.875 14.9497 11.875 13.5C11.875 12.0503 13.0503 10.875 14.5 10.875C15.9497 10.875 17.125 12.0503 17.125 13.5Z" fill="#FAF8EF"/>
<path fill-rule="evenodd" clip-rule="evenodd" d="M18.7275 9.75H18.7362H18.7275Z" fill="#D9D9D9"/>
<path d="M18.7275 9.75H18.7362" stroke="#FAF8EF" stroke-linecap="round" stroke-linejoin="round"/>
</svg>

<svg width="29" height="28" viewBox="0 0 29 28" fill="none" xmlns="http://www.w3.org/2000/svg"><rect x="1.002" y=".355" width="26.927" height="26.927" rx="13.464" stroke="#FAF8EF" stroke-width=".716"/><path fill-rule="evenodd" clip-rule="evenodd" d="M12.25 5.5c-1.924 0-3.401.382-4.385 1.365C6.882 7.85 6.5 9.325 6.5 11.25v4.5c0 1.924.382 3.401 1.365 4.385.984.983 2.46 1.365 4.385 1.365h4.5c1.924 0 3.401-.382 4.385-1.365.983-.984 1.365-2.46 1.365-4.385v-4.5c0-1.924-.382-3.401-1.365-4.385-.984-.983-2.46-1.365-4.385-1.365h-4.5zM7.5 11.25c0-1.826.368-2.974 1.072-3.678.704-.704 1.852-1.072 3.678-1.072h4.5c1.826 0 2.974.368 3.678 1.072.704.704 1.072 1.852 1.072 3.678v4.5c0 1.826-.368 2.974-1.072 3.678-.704.704-1.852 1.072-3.678 1.072h-4.5c-1.826 0-2.974-.368-3.678-1.072-.704-.704-1.072-1.852-1.072-3.678v-4.5zm9.625 2.25a2.625 2.625 0 11-5.25 0 2.625 2.625 0 015.25 0z" fill="#FAF8EF"/><path fill-rule="evenodd" clip-rule="evenodd" d="M18.727 9.75h.01-.01z" fill="#D9D9D9"/><path d="M18.727 9.75h.01" stroke="#FAF8EF" stroke-linecap="round" stroke-linejoin="round"/></svg>
